X:6
T:Polska från Västergötland
T:Svenska Folkdansar H3 nr 6
O:Västergötland
B:Traditioner av Svenska Folkdansar Häfte 3, nr 6
R:Polska
Z:Nils L
M:3/4
L:1/8
K:Am
(A>B) (B>c) (B>A) | (^G>A) B2 E2 | (c>d) (e>f) (e>d) | c>d e2 B2 |
c>c fe dc | (BA) dc B^G | A>^G A>B c>d | (e>f) d2 e>B |
(c>B) A2 A>c | (B>A) ^G2 E2 | (A>B) (c>d) (e>f) | (d>f) e2 (c>B) |
(^G2 A2) z2 :|

